dist/img/gajet.svg

<svg width="156" height="207" viewBox="0 0 156 207" fill="none" xmlns="http://www.w3.org/2000/svg">
<g clip-path="url(#clip0)">
<path d="M139.813 0H16.187C7.25888 0 0 6.08025 0 13.5587V193.441C0 200.92 7.25888 207 16.187 207H139.818C148.747 207 156.005 200.92 156.005 193.441V13.5587C156 6.08025 148.741 0 139.813 0ZM147.764 193.441C147.764 197.112 144.2 200.101 139.813 200.101H16.187C11.8053 200.101 8.23625 197.116 8.23625 193.441V13.5587C8.23625 9.88846 11.7998 6.89893 16.187 6.89893H139.818C144.2 6.89893 147.769 9.88386 147.769 13.5587L147.764 193.441Z" fill="#3F7BA3"/>
<path d="M137.391 31.4407H18.6137C16.3405 31.4407 14.4956 32.986 14.4956 34.8901V172.11C14.4956 174.014 16.3405 175.559 18.6137 175.559H137.391C139.665 175.559 141.51 174.014 141.51 172.11V34.8901C141.51 32.9814 139.665 31.4407 137.391 31.4407ZM22.7319 96.1342L62.5953 38.3396H73.7856L22.7319 112.356V96.1342ZM53.0797 38.3396L22.7319 82.341V38.3396H53.0797ZM22.7319 126.149L83.2957 38.3396H133.273V111.257L93.6789 168.66H22.7319V126.149ZM103.189 168.66L133.268 125.05V168.66H103.189Z" fill="#3F7BA3"/>
<path d="M66.268 23H89.732C91.5359 23 93 21.432 93 19.5C93 17.568 91.5359 16 89.732 16H66.268C64.4641 16 63 17.568 63 19.5C63 21.432 64.4641 23 66.268 23Z" fill="#3F7BA3"/>
<path d="M78 178C73.0361 178 69 182.036 69 187C69 191.964 73.0361 196 78 196C82.9639 196 87 191.964 87 187C87 182.036 82.9639 178 78 178ZM78 188.94C76.9309 188.94 76.0644 188.069 76.0644 187.005C76.0644 185.94 76.9356 185.069 78 185.069C79.0644 185.069 79.9356 185.94 79.9356 187.005C79.9356 188.069 79.0691 188.94 78 188.94Z" fill="#3F7BA3"/>
</g>
<defs>
<clipPath id="clip0">
<rect width="156" height="207" fill="white"/>
</clipPath>
</defs>
</svg>

<svg width="156" height="207" fill="none" xmlns="http://www.w3.org/2000/svg"><g clip-path="url(#clip0)" fill="#3F7BA3"><path d="M139.813 0H16.187C7.259 0 0 6.08 0 13.559V193.44C0 200.92 7.259 207 16.187 207h123.631c8.929 0 16.187-6.08 16.187-13.559V13.559C156 6.08 148.741 0 139.813 0zm7.951 193.441c0 3.671-3.564 6.66-7.951 6.66H16.187c-4.382 0-7.95-2.985-7.95-6.66V13.559c0-3.67 3.563-6.66 7.95-6.66h123.631c4.382 0 7.951 2.985 7.951 6.66l-.005 179.882z"/><path d="M137.391 31.44H18.614c-2.274 0-4.118 1.546-4.118 3.45v137.22c0 1.904 1.844 3.449 4.118 3.449H137.39c2.274 0 4.119-1.545 4.119-3.449V34.89c0-1.909-1.845-3.45-4.119-3.45zM22.731 96.135L62.596 38.34h11.19l-51.053 74.016V96.134zM53.08 38.34l-30.348 44v-44H53.08zm-30.348 87.809l60.564-87.81h49.977v72.918L93.679 168.66H22.732v-42.511zm80.457 42.511l30.079-43.61v43.61h-30.079zM66.268 23h23.464C91.536 23 93 21.432 93 19.5S91.536 16 89.732 16H66.268C64.464 16 63 17.568 63 19.5s1.464 3.5 3.268 3.5zM78 178c-4.964 0-9 4.036-9 9s4.036 9 9 9 9-4.036 9-9-4.036-9-9-9zm0 10.94a1.938 1.938 0 01-1.936-1.935c0-1.065.872-1.936 1.936-1.936s1.936.871 1.936 1.936A1.938 1.938 0 0178 188.94z"/></g><defs><clipPath id="clip0"><path fill="#fff" d="M0 0h156v207H0z"/></clipPath></defs></svg>
